_includes/icons/ios-apartment-building.svg

<svg fill="#666" height="50" viewBox="0 0 50 50" width="50" xmlns="http://www.w3.org/2000/svg"><path d="m8 2v4h-4v42h42v-34h-16v-8h-4v-4zm2 2h14v4h4v38h-9v-7h-4v7h-9v-38h4zm0 6v2h2v-2zm4 0v2h2v-2zm4 0v2h2v-2zm4 0v2h2v-2zm-12 5v4h2v-4zm4 0v4h2v-4zm4 0v4h2v-4zm4 0v4h2v-4zm8 1h14v30h-14zm2 2v2h2v-2zm4 0v2h2v-2zm4 0v2h2v-2zm-30 3v4h2v-4zm4 0v4h2v-4zm4 0v4h2v-4zm4 0v4h2v-4zm10 1v2h2v-2zm4 0v2h2v-2zm4 0v2h2v-2zm-8 4v2h2v-2zm4 0v2h2v-2zm4 0v2h2v-2zm-30 1v4h2v-4zm4 0v4h2v-4zm4 0v4h2v-4zm4 0v4h2v-4zm10 3v2h2v-2zm4 0v2h2v-2zm4 0v2h2v-2zm-30 3v4h2v-4zm4 0v4h2v-4zm4 0v4h2v-4zm4 0v4h2v-4zm10 1v2h2v-2zm4 0v2h2v-2zm4 0v2h2v-2zm-8 4v2h2v-2zm4 0v2h2v-2zm4 0v2h2v-2zm-30 1v5h2v-5zm12 0v5h2v-5zm10 3v2h2v-2zm4 0v2h2v-2zm4 0v2h2v-2z"/></svg>

<svg xmlns="http://www.w3.org/2000/svg" viewBox="0 0 50 50" width="50" height="50" fill="#666"><path d="M 8 2 L 8 6 L 4 6 L 4 48 L 46 48 L 46 14 L 30 14 L 30 6 L 26 6 L 26 2 Z M 10 4 L 24 4 L 24 8 L 28 8 L 28 46 L 19 46 L 19 39 L 15 39 L 15 46 L 6 46 L 6 8 L 10 8 Z M 10 10 L 10 12 L 12 12 L 12 10 Z M 14 10 L 14 12 L 16 12 L 16 10 Z M 18 10 L 18 12 L 20 12 L 20 10 Z M 22 10 L 22 12 L 24 12 L 24 10 Z M 10 15 L 10 19 L 12 19 L 12 15 Z M 14 15 L 14 19 L 16 19 L 16 15 Z M 18 15 L 18 19 L 20 19 L 20 15 Z M 22 15 L 22 19 L 24 19 L 24 15 Z M 30 16 L 44 16 L 44 46 L 30 46 Z M 32 18 L 32 20 L 34 20 L 34 18 Z M 36 18 L 36 20 L 38 20 L 38 18 Z M 40 18 L 40 20 L 42 20 L 42 18 Z M 10 21 L 10 25 L 12 25 L 12 21 Z M 14 21 L 14 25 L 16 25 L 16 21 Z M 18 21 L 18 25 L 20 25 L 20 21 Z M 22 21 L 22 25 L 24 25 L 24 21 Z M 32 22 L 32 24 L 34 24 L 34 22 Z M 36 22 L 36 24 L 38 24 L 38 22 Z M 40 22 L 40 24 L 42 24 L 42 22 Z M 32 26 L 32 28 L 34 28 L 34 26 Z M 36 26 L 36 28 L 38 28 L 38 26 Z M 40 26 L 40 28 L 42 28 L 42 26 Z M 10 27 L 10 31 L 12 31 L 12 27 Z M 14 27 L 14 31 L 16 31 L 16 27 Z M 18 27 L 18 31 L 20 31 L 20 27 Z M 22 27 L 22 31 L 24 31 L 24 27 Z M 32 30 L 32 32 L 34 32 L 34 30 Z M 36 30 L 36 32 L 38 32 L 38 30 Z M 40 30 L 40 32 L 42 32 L 42 30 Z M 10 33 L 10 37 L 12 37 L 12 33 Z M 14 33 L 14 37 L 16 37 L 16 33 Z M 18 33 L 18 37 L 20 37 L 20 33 Z M 22 33 L 22 37 L 24 37 L 24 33 Z M 32 34 L 32 36 L 34 36 L 34 34 Z M 36 34 L 36 36 L 38 36 L 38 34 Z M 40 34 L 40 36 L 42 36 L 42 34 Z M 32 38 L 32 40 L 34 40 L 34 38 Z M 36 38 L 36 40 L 38 40 L 38 38 Z M 40 38 L 40 40 L 42 40 L 42 38 Z M 10 39 L 10 44 L 12 44 L 12 39 Z M 22 39 L 22 44 L 24 44 L 24 39 Z M 32 42 L 32 44 L 34 44 L 34 42 Z M 36 42 L 36 44 L 38 44 L 38 42 Z M 40 42 L 40 44 L 42 44 L 42 42 Z"/></svg>
